assets/gi/gi-abstract-114.svg

<svg xmlns="http://www.w3.org/2000/svg" width="100%" height="100%" viewBox="-35.84 -35.84 583.68 583.68"><path d="m43.7656,21c-12.6762,0-22.7656,10.9915-22.7656,24.5281v19.3875h82.8375v-19.3875c0-13.5366-10.0894-24.5281-22.7657-24.5281h-37.3062zm107.9531,0c-12.7648,0-23.0593,10.9915-23.0593,24.5281v19.3875h83.5719v-19.3875c0-13.5366-10.2946-24.5281-23.0594-24.5281h-37.4532zm108.3938,0c-12.7648,0-23.0594,10.9915-23.0594,24.5281v383.3438h146.1406v-112.5062c-3.0364,1.5484-6.3798,2.4969-9.9875,2.4969h-58.3093c-12.7649,0-23.0594-10.8447-23.0594-24.3813v-70.2063c0-12.6905 9.0605-23.271 20.7093-24.5281 .7766-.0836 1.5523,0 2.3501,0h58.3093c3.6011,0 6.9553.937 9.9875,2.4969v-38.4813c-3.0364,1.5484-6.3798,2.4969-9.9875,2.4969h-58.3093c-12.7649,0-23.0594-10.8447-23.0594-24.3812v-70.2063c0-12.6905 9.0605-23.271 20.7093-24.5281 .7766-.0836 1.5523,0 2.3501,0h58.3093c3.6011,0 6.9553.9369 9.9875,2.4968v-4.1125c0-13.5366-10.2946-24.5281-23.0594-24.5281h-100.0218zm170.8156,0c-12.6762,0-22.9125,10.9915-22.9125,24.5281v327.2375h82.9844v-327.2375c0-13.5366-10.2363-24.5281-22.9125-24.5281h-37.1594zm-409.9281,62.275v345.5969h82.8375v-345.5969h-82.8375zm107.6594,0v33.7812h83.5719v-33.7812h-83.5719zm-66.5344,24.3813c14.0474,0 25.4094,10.9065 25.4094,24.2344s-11.362,24.0875-25.4094,24.0875-25.5562-10.7597-25.5562-24.0875 11.5088-24.2344 25.5562-24.2344zm66.5344,27.7594v331.2031c0,13.5366 10.2946,24.3813 23.0593,24.3813h37.4532c12.7648,0 23.0594-10.8447 23.0594-24.3813v-331.2031h-83.5719zm-66.5344,38.775c14.0474,0 25.4094,10.7597 25.4094,24.0875s-11.362,24.2344-25.4094,24.2344-25.5562-10.9066-25.5562-24.2344 11.5088-24.0875 25.5562-24.0875zm0,66.5344c14.0474,0 25.4094,10.7597 25.4094,24.0875s-11.362,24.2344-25.4094,24.2344-25.5562-10.9065-25.5562-24.2344 11.5088-24.0875 25.5562-24.0875zm345.8906,150.4v37.7469h82.9844v-37.7469h-82.9844zm-387.0156,56.1063v19.3875c0,13.5366 10.0894,24.3813 22.7656,24.3813h37.3062c12.6762,0 22.7657-10.8447 22.7657-24.3813v-19.3875h-82.8375zm216.0531,0v19.3875c0,13.5366 10.2946,24.3813 23.0594,24.3813h100.0218c12.7648,0 23.0594-10.8447 23.0594-24.3813v-19.3875h-146.1406zm170.9625,0v19.3875c0,13.5366 10.2363,24.3813 22.9125,24.3813h37.1594c12.6762,0 22.9125-10.8447 22.9125-24.3813v-19.3875h-82.9844z"/></svg>

<svg xmlns="http://www.w3.org/2000/svg" width="100%" height="100%" viewBox="-35.84 -35.84 583.68 583.68"><path d="M43.766 21C31.089 21 21 31.992 21 45.528v19.388h82.838V45.528C103.838 31.991 93.748 21 81.072 21H43.766zm107.953 0c-12.765 0-23.06 10.992-23.06 24.528v19.388h83.572V45.528c0-13.537-10.294-24.528-23.06-24.528H151.72zm108.394 0c-12.765 0-23.06 10.992-23.06 24.528v383.344h146.14V316.366c-3.036 1.548-6.38 2.497-9.987 2.497h-58.31c-12.764 0-23.058-10.845-23.058-24.382v-70.206c0-12.69 9.06-23.271 20.709-24.528.776-.084 1.552 0 2.35 0h58.31c3.6 0 6.955.937 9.987 2.497v-38.482c-3.037 1.549-6.38 2.497-9.988 2.497h-58.31c-12.764 0-23.058-10.844-23.058-24.38V71.671c0-12.69 9.06-23.271 20.709-24.528.776-.084 1.552 0 2.35 0h58.31c3.6 0 6.955.937 9.987 2.497v-4.113c0-13.537-10.295-24.528-23.06-24.528H260.113zm170.815 0c-12.676 0-22.912 10.992-22.912 24.528v327.238H491V45.528C491 31.991 480.764 21 468.087 21h-37.159zM21 83.275v345.597h82.838V83.275H21zm107.66 0v33.781h83.571V83.275H128.66zm-66.535 24.381c14.047 0 25.41 10.907 25.41 24.235s-11.363 24.087-25.41 24.087-25.556-10.76-25.556-24.087 11.509-24.235 25.556-24.235zm66.534 27.76v331.203c0 13.536 10.295 24.381 23.06 24.381h37.453c12.765 0 23.06-10.845 23.06-24.381V135.416h-83.573zM62.125 174.19c14.047 0 25.41 10.76 25.41 24.087s-11.363 24.235-25.41 24.235-25.556-10.907-25.556-24.235 11.509-24.087 25.556-24.087zm0 66.534c14.047 0 25.41 10.76 25.41 24.088s-11.363 24.234-25.41 24.234-25.556-10.906-25.556-24.234 11.509-24.088 25.556-24.088zm345.89 150.4v37.747H491v-37.747h-82.984zM21 447.231v19.388C21 480.155 31.09 491 43.766 491h37.306c12.676 0 22.765-10.844 22.765-24.381V447.23H21zm216.053 0v19.388c0 13.536 10.295 24.381 23.06 24.381h100.021c12.765 0 23.06-10.844 23.06-24.381V447.23h-146.14zm170.963 0v19.388c0 13.536 10.236 24.381 22.912 24.381h37.16C480.764 491 491 480.156 491 466.62V447.23h-82.984z"/></svg>
